X:1
T:Jamie Hardie
L:1/8
M:4/4
I:linebreak $
K:D
V:1 treble 
V:1
 A,2 | D/D/D FA d2 AF | D/D/D FD EB,B,E | D/D/D FA dBAG | FDGE FDDA, | D/D/D FA d2 AF |$ %6
 D/D/D FD EB,B,E | D/D/D FA dfag | fdec dDD || g | fdge afdf | ecdB cAAg |$ fdge fgaA | Bcde fddg | %14
 fdge afdf | ecdB cAAg | fdec dDFA |$ Bdca fd z2 | [Fd]6 |] %19
